X:615
T: Road to Ballymote
S: B.Breathnach: "Ceol Rince na hEireann" II/151 (gan ainm)
Z: B.Black
L: 1/8
M: 4/4
R: reel
K: G
DGBd d2 Bd|dB B2 cA A2|DGBc dgec|dBAc BG G2|
DGBd d2 Bd|dB B2 cA A2|DGBc dBeB|dBAc BG G2||
gfgd e2 e2|dB B2 cA A2|gfgd (3efg dB|dBAc BG G2|
gfgd e2 ec|dB B2 cA A2|GABd egfa|gedc BG G2||

